svgs/medium.svg

<svg width="192" height="192" viewBox="0 0 192 192" xmlns="http://www.w3.org/2000/svg"><g fill="none" fill-rule="evenodd"><path d="M61.126 56c10.798 0 20.571 4.418 27.646 11.554 7.094 7.155 11.478 17.04 11.478 27.956 0 10.915-4.384 20.8-11.478 27.954-7.075 7.136-16.849 11.554-27.646 11.554-10.798 0-20.572-4.418-27.648-11.554C26.384 116.31 22 106.425 22 95.51c0-10.916 4.384-20.801 11.478-27.956C40.553 60.418 50.328 56 61.126 56Zm72.062 2.666c1.766 0 3.404.768 4.92 1.96 2.18 1.716 4.087 4.273 5.726 7.384 3.706 7.038 5.917 16.775 5.917 27.5 0 10.723-2.21 20.46-5.917 27.498-1.638 3.112-3.545 5.67-5.726 7.385-1.515 1.192-3.153 1.96-4.919 1.96-1.765 0-3.403-.768-4.918-1.96-2.181-1.716-4.088-4.273-5.727-7.384-3.706-7.039-5.917-16.776-5.917-27.5 0-10.722 2.21-20.46 5.917-27.499 1.638-3.111 3.545-5.668 5.726-7.384 1.515-1.192 3.152-1.96 4.918-1.96Z" stroke="#000" stroke-width="12"/><path d="M168.065 57.128c4.381 0 7.935 17.184 7.935 38.382 0 21.191-3.552 38.381-7.935 38.381-4.384 0-7.934-17.185-7.934-38.381s3.552-38.382 7.934-38.382Z" fill="#000" fill-rule="nonzero"/></g></svg>

<svg id="vector" xmlns="http://www.w3.org/2000/svg" width="192" height="192" viewBox="0 0 192 192"><path fill="#00000000" d="M61.13,56C71.92,56 81.7,60.42 88.77,67.55C95.87,74.71 100.25,84.59 100.25,95.51C100.25,106.43 95.87,116.31 88.77,123.46C81.7,130.6 71.92,135.02 61.13,135.02C50.33,135.02 40.55,130.6 33.48,123.46C26.38,116.31 22,106.43 22,95.51C22,84.59 26.38,74.71 33.48,67.55C40.55,60.42 50.33,56 61.13,56Z" stroke-width="12" fill-rule="nonzero" stroke="#000000" id="path_0"/><path fill="#00000000" d="M133.19,58.67C134.95,58.67 136.59,59.43 138.11,60.63C140.29,62.34 142.2,64.9 143.83,68.01C147.54,75.05 149.75,84.78 149.75,95.51C149.75,106.23 147.54,115.97 143.83,123.01C142.2,126.12 140.29,128.68 138.11,130.39C136.59,131.58 134.96,132.35 133.19,132.35C131.42,132.35 129.79,131.58 128.27,130.39C126.09,128.68 124.18,126.12 122.54,123.01C118.84,115.97 116.63,106.23 116.63,95.51C116.63,84.79 118.84,75.05 122.54,68.01C124.18,64.9 126.09,62.34 128.27,60.63C129.78,59.43 131.42,58.67 133.19,58.67Z" stroke-width="12" fill-rule="nonzero" stroke="#000000" id="path_1"/><path fill="#000000" d="M168.06,57.13C172.45,57.13 176,74.31 176,95.51C176,116.7 172.45,133.89 168.06,133.89C163.68,133.89 160.13,116.71 160.13,95.51C160.13,74.31 163.68,57.13 168.06,57.13Z" stroke-width="1" fill-rule="nonzero" stroke="#00000000" id="path_2"/></svg>
